src/assets/img/svg/doodle4.svg

<svg width="42" height="55" viewBox="0 0 42 55" fill="none" xmlns="http://www.w3.org/2000/svg">
<g clip-path="url(#clip0_103_106)">
<path d="M4.68862 42.7348C4.46787 42.6581 4.25701 42.5529 4.0758 42.3624C3.39616 41.7754 3.37742 40.8123 3.96162 40.2501C12.1423 32.475 13.4322 20.4238 14.0938 7.73969C14.1301 6.92326 14.9016 6.33047 15.7908 6.41628C16.6799 6.50208 17.3732 7.25321 17.3369 8.06963C16.6451 21.3491 15.2718 33.9452 6.35307 42.4204C5.9228 42.8449 5.25628 42.9321 4.65709 42.7238L4.68862 42.7348Z" fill="#3F78E0" stroke="#3F78E0" stroke-width="0.83" stroke-miterlimit="10"/>
<path d="M17.6122 49.2855C17.4152 49.2171 17.1946 49.1109 17.025 48.9635C16.3048 48.389 16.1667 47.5157 16.7564 46.9836C21.9502 42.0973 25.9405 36.4389 28.541 30.1207C28.8206 29.422 29.7677 29.1321 30.645 29.4665C31.5223 29.8009 32.0015 30.6454 31.7218 31.3441C28.9788 37.9665 24.8132 43.9176 19.3638 49.01C18.9275 49.4184 18.236 49.5023 17.6122 49.2855Z" fill="#3F78E0" stroke="#3F78E0" stroke-width="0.83" stroke-miterlimit="10"/>
</g>
<defs>
<clipPath id="clip0_103_106">
<rect width="27.4365" height="48" fill="white" transform="translate(15.7568) rotate(19.1642)"/>
</clipPath>
</defs>
</svg>

<svg width="42" height="55" viewBox="0 0 42 55" fill="none" xmlns="http://www.w3.org/2000/svg"><g clip-path="url(#clip0_103_106)" fill="#3F78E0" stroke="#3F78E0" stroke-width=".83" stroke-miterlimit="10"><path d="M4.689 42.735a1.476 1.476 0 01-.613-.373c-.68-.587-.699-1.55-.114-2.112 8.18-7.775 9.47-19.826 10.132-32.51.036-.817.808-1.41 1.697-1.324.889.086 1.582.837 1.546 1.654-.692 13.28-2.065 25.875-10.984 34.35-.43.425-1.097.512-1.696.304l.032.01zm12.923 6.55a1.828 1.828 0 01-.587-.321c-.72-.575-.858-1.448-.269-1.98 5.194-4.887 9.184-10.545 11.785-16.863.28-.699 1.227-.989 2.104-.654.877.334 1.357 1.178 1.077 1.877-2.743 6.623-6.909 12.574-12.358 17.666-.437.408-1.128.492-1.752.276z"/></g><defs><clipPath id="clip0_103_106"><path fill="#fff" transform="rotate(19.164 7.878 46.669)" d="M0 0h27.436v48H0z"/></clipPath></defs></svg>
